docs/local/img/sprites/str.svg

<svg width="7" height="11" viewBox="0 0 7 11" xmlns="http://www.w3.org/2000/svg">
<path d="M0.232842 5.92922L5.17797 10.8243C5.29234 10.9376 5.44502 11 5.60782 11C5.77062 11 5.9233 10.9376 6.03768 10.8243L6.40185 10.4639C6.63882 10.229 6.63882 9.84733 6.40185 9.61285L2.24931 5.50228L6.40646 1.38715C6.52083 1.27384 6.58398 1.1228 6.58398 0.961733C6.58398 0.80049 6.52083 0.649443 6.40646 0.536045L6.04228 0.175731C5.92782 0.0624228 5.77523 9.69076e-07 5.61243 9.72177e-07C5.44963 9.75277e-07 5.29695 0.0624228 5.18258 0.175731L0.232842 5.07525C0.118196 5.18892 0.0552266 5.34068 0.0555881 5.50201C0.0552266 5.66397 0.118196 5.81564 0.232842 5.92922Z"/>
</svg>

<svg width="7" height="11" viewBox="0 0 7 11" xmlns="http://www.w3.org/2000/svg"><path d="M.233 5.93l4.945 4.894a.607.607 0 00.43.176.607.607 0 00.43-.176l.364-.36a.598.598 0 000-.851l-4.153-4.11 4.157-4.116a.595.595 0 000-.851l-.364-.36A.607.607 0 005.612 0a.607.607 0 00-.43.176l-4.95 4.9a.595.595 0 00-.176.426c0 .162.062.314.177.427z"/></svg>
